assets/1. P-Z/Purse/Color/Purse-color.svg

<svg width="100%" height="100%" viewBox="0 0 32 32" fill="none" xmlns="http://www.w3.org/2000/svg">
<g filter="url(#filter0_i_18_17026)">
<path d="M11.371 8.8125C7.70777 8.8125 4.45476 11.1117 3.51917 14.6127C3.45415 14.856 3.38942 15.1014 3.32526 15.348C3.71148 15.9271 4.0139 16.5071 3.79364 16.6172C3.6033 16.7124 3.36889 16.7703 3.16156 16.8037C3.03577 16.824 2.93036 16.9138 2.90036 17.0376C2.67034 17.987 2.45815 18.9273 2.27977 19.8125C1.48944 24.5938 3.46526 30.1875 16 29.8711C28.5347 30.1875 30.5105 24.5938 29.7202 19.8125C29.5418 18.9273 29.3296 17.9868 29.0995 17.0374C29.0695 16.9136 28.9642 16.8238 28.8384 16.8035C28.6314 16.77 28.3976 16.7122 28.2077 16.6172C27.9876 16.5072 28.2893 15.9281 28.6751 15.3495C28.6108 15.1024 28.5459 14.8565 28.4808 14.6127C27.5452 11.1117 24.2922 8.8125 20.6289 8.8125H11.371Z" fill="url(#paint0_radial_18_17026)"/>
<path d="M11.371 8.8125C7.70777 8.8125 4.45476 11.1117 3.51917 14.6127C3.45415 14.856 3.38942 15.1014 3.32526 15.348C3.71148 15.9271 4.0139 16.5071 3.79364 16.6172C3.6033 16.7124 3.36889 16.7703 3.16156 16.8037C3.03577 16.824 2.93036 16.9138 2.90036 17.0376C2.67034 17.987 2.45815 18.9273 2.27977 19.8125C1.48944 24.5938 3.46526 30.1875 16 29.8711C28.5347 30.1875 30.5105 24.5938 29.7202 19.8125C29.5418 18.9273 29.3296 17.9868 29.0995 17.0374C29.0695 16.9136 28.9642 16.8238 28.8384 16.8035C28.6314 16.77 28.3976 16.7122 28.2077 16.6172C27.9876 16.5072 28.2893 15.9281 28.6751 15.3495C28.6108 15.1024 28.5459 14.8565 28.4808 14.6127C27.5452 11.1117 24.2922 8.8125 20.6289 8.8125H11.371Z" fill="url(#paint1_radial_18_17026)"/>
</g>
<path d="M11.371 8.8125C7.70777 8.8125 4.45476 11.1117 3.51917 14.6127C3.45415 14.856 3.38942 15.1014 3.32526 15.348C3.71148 15.9271 4.0139 16.5071 3.79364 16.6172C3.6033 16.7124 3.36889 16.7703 3.16156 16.8037C3.03577 16.824 2.93036 16.9138 2.90036 17.0376C2.67034 17.987 2.45815 18.9273 2.27977 19.8125C1.48944 24.5938 3.46526 30.1875 16 29.8711C28.5347 30.1875 30.5105 24.5938 29.7202 19.8125C29.5418 18.9273 29.3296 17.9868 29.0995 17.0374C29.0695 16.9136 28.9642 16.8238 28.8384 16.8035C28.6314 16.77 28.3976 16.7122 28.2077 16.6172C27.9876 16.5072 28.2893 15.9281 28.6751 15.3495C28.6108 15.1024 28.5459 14.8565 28.4808 14.6127C27.5452 11.1117 24.2922 8.8125 20.6289 8.8125H11.371Z" fill="url(#paint2_radial_18_17026)"/>
<g filter="url(#filter1_i_18_17026)">
<circle cx="14.532" cy="7.43359" r="1.46484" fill="url(#paint3_radial_18_17026)"/>
</g>
<g filter="url(#filter2_i_18_17026)">
<circle cx="17.4617" cy="7.43359" r="1.46484" fill="url(#paint4_radial_18_17026)"/>
</g>
<g filter="url(#filter3_ii_18_17026)">
<path d="M11.371 8.8125C7.70775 8.8125 4.45474 11.1117 3.51915 14.6127C3.36529 15.1885 3.21302 15.7759 3.06612 16.364C3.00914 16.5921 3.18186 16.8125 3.41673 16.8125C3.99374 16.8125 4.49708 16.422 4.64844 15.8646C4.70228 15.6663 4.75654 15.4691 4.81103 15.2734C5.64978 12.2608 7.83408 10.2824 11.8501 10.2824H20.1498C24.1907 10.2824 26.3501 12.2608 27.1889 15.2734C27.2434 15.4691 27.2976 15.6663 27.3515 15.8646C27.5028 16.422 28.0062 16.8125 28.5832 16.8125C28.818 16.8125 28.9908 16.5921 28.9338 16.364C28.7869 15.7759 28.6346 15.1885 28.4808 14.6127C27.5452 11.1117 24.2921 8.8125 20.6289 8.8125H11.371Z" fill="url(#paint5_radial_18_17026)"/>
</g>
<path d="M11.371 8.8125C7.70775 8.8125 4.45474 11.1117 3.51915 14.6127C3.36529 15.1885 3.21302 15.7759 3.06612 16.364C3.00914 16.5921 3.18186 16.8125 3.41673 16.8125C3.99374 16.8125 4.49708 16.422 4.64844 15.8646C4.70228 15.6663 4.75654 15.4691 4.81103 15.2734C5.64978 12.2608 7.83408 10.2824 11.8501 10.2824H20.1498C24.1907 10.2824 26.3501 12.2608 27.1889 15.2734C27.2434 15.4691 27.2976 15.6663 27.3515 15.8646C27.5028 16.422 28.0062 16.8125 28.5832 16.8125C28.818 16.8125 28.9908 16.5921 28.9338 16.364C28.7869 15.7759 28.6346 15.1885 28.4808 14.6127C27.5452 11.1117 24.2921 8.8125 20.6289 8.8125H11.371Z" fill="url(#paint6_radial_18_17026)"/>
<g filter="url(#filter4_f_18_17026)">
<path d="M23.0063 9.60516C24.3037 9.91896 27.0905 11.2815 27.9305 14.2215C28.1478 14.9457 28.4917 15.9776 28.6184 16.4664" stroke="url(#paint7_linear_18_17026)" stroke-width="0.25"/>
</g>
<defs>
<filter id="filter0_i_18_17026" x="2.12817" y="8.3125" width="29.7437" height="21.5714" filterUnits="userSpaceOnUse" color-interpolation-filters="sRGB">
<feFlood flood-opacity="0" result="BackgroundImageFix"/>
<feBlend mode="normal" in="SourceGraphic" in2="BackgroundImageFix" result="shape"/>
<feColorMatrix in="SourceAlpha" type="matrix" values="0 0 0 0 0 0 0 0 0 0 0 0 0 0 0 0 0 0 127 0" result="hardAlpha"/>
<feOffset dx="2" dy="-0.5"/>
<feGaussianBlur stdDeviation="2"/>
<feComposite in2="hardAlpha" operator="arithmetic" k2="-1" k3="1"/>
<feColorMatrix type="matrix" values="0 0 0 0 0.737255 0 0 0 0 0.25098 0 0 0 0 0.396078 0 0 0 1 0"/>
<feBlend mode="normal" in2="shape" result="effect1_innerShadow_18_17026"/>
</filter>
<filter id="filter1_i_18_17026" x="13.0671" y="5.86875" width="2.92969" height="3.02969" filterUnits="userSpaceOnUse" color-interpolation-filters="sRGB">
<feFlood flood-opacity="0" result="BackgroundImageFix"/>
<feBlend mode="normal" in="SourceGraphic" in2="BackgroundImageFix" result="shape"/>
<feColorMatrix in="SourceAlpha" type="matrix" values="0 0 0 0 0 0 0 0 0 0 0 0 0 0 0 0 0 0 127 0" result="hardAlpha"/>
<feOffset dy="-0.1"/>
<feGaussianBlur stdDeviation="0.15"/>
<feComposite in2="hardAlpha" operator="arithmetic" k2="-1" k3="1"/>
<feColorMatrix type="matrix" values="0 0 0 0 0.996078 0 0 0 0 0.541176 0 0 0 0 0.0941176 0 0 0 1 0"/>
<feBlend mode="normal" in2="shape" result="effect1_innerShadow_18_17026"/>
</filter>
<filter id="filter2_i_18_17026" x="15.9968" y="5.86875" width="3.02969" height="3.02969" filterUnits="userSpaceOnUse" color-interpolation-filters="sRGB">
<feFlood flood-opacity="0" result="BackgroundImageFix"/>
<feBlend mode="normal" in="SourceGraphic" in2="BackgroundImageFix" result="shape"/>
<feColorMatrix in="SourceAlpha" type="matrix" values="0 0 0 0 0 0 0 0 0 0 0 0 0 0 0 0 0 0 127 0" result="hardAlpha"/>
<feOffset dx="0.1" dy="-0.1"/>
<feGaussianBlur stdDeviation="0.15"/>
<feComposite in2="hardAlpha" operator="arithmetic" k2="-1" k3="1"/>
<feColorMatrix type="matrix" values="0 0 0 0 0.996078 0 0 0 0 0.541176 0 0 0 0 0.0941176 0 0 0 1 0"/>
<feBlend mode="normal" in2="shape" result="effect1_innerShadow_18_17026"/>
</filter>
<filter id="filter3_ii_18_17026" x="3.05518" y="8.6125" width="25.9896" height="8.3" filterUnits="userSpaceOnUse" color-interpolation-filters="sRGB">
<feFlood flood-opacity="0" result="BackgroundImageFix"/>
<feBlend mode="normal" in="SourceGraphic" in2="BackgroundImageFix" result="shape"/>
<feColorMatrix in="SourceAlpha" type="matrix" values="0 0 0 0 0 0 0 0 0 0 0 0 0 0 0 0 0 0 127 0" result="hardAlpha"/>
<feOffset dx="0.1" dy="0.1"/>
<feGaussianBlur stdDeviation="0.125"/>
<feComposite in2="hardAlpha" operator="arithmetic" k2="-1" k3="1"/>
<feColorMatrix type="matrix" values="0 0 0 0 0.960784 0 0 0 0 0.678431 0 0 0 0 0.282353 0 0 0 1 0"/>
<feBlend mode="normal" in2="shape" result="effect1_innerShadow_18_17026"/>
<feColorMatrix in="SourceAlpha" type="matrix" values="0 0 0 0 0 0 0 0 0 0 0 0 0 0 0 0 0 0 127 0" result="hardAlpha"/>
<feOffset dy="-0.2"/>
<feGaussianBlur stdDeviation="0.2"/>
<feComposite in2="hardAlpha" operator="arithmetic" k2="-1" k3="1"/>
<feColorMatrix type="matrix" values="0 0 0 0 1 0 0 0 0 0.498039 0 0 0 0 0.101961 0 0 0 1 0"/>
<feBlend mode="normal" in2="effect1_innerShadow_18_17026" result="effect2_innerShadow_18_17026"/>
</filter>
<filter id="filter4_f_18_17026" x="22.5771" y="9.08367" width="6.56245" height="7.81407" filterUnits="userSpaceOnUse" color-interpolation-filters="sRGB">
<feFlood flood-opacity="0" result="BackgroundImageFix"/>
<feBlend mode="normal" in="SourceGraphic" in2="BackgroundImageFix" result="shape"/>
<feGaussianBlur stdDeviation="0.2" result="effect1_foregroundBlur_18_17026"/>
</filter>
<radialGradient id="paint0_radial_18_17026" cx="0" cy="0" r="1" gradientUnits="userSpaceOnUse" gradientTransform="translate(26.3718 13.5625) rotate(141.588) scale(15.7932 14.0923)">
<stop offset="0.271984" stop-color="#FF68A5"/>
<stop offset="1" stop-color="#FB2B66"/>
</radialGradient>
<radialGradient id="paint1_radial_18_17026" cx="0" cy="0" r="1" gradientUnits="userSpaceOnUse" gradientTransform="translate(18.0593 24.375) rotate(-105.68) scale(14.8008 31.1221)">
<stop offset="0.798763" stop-color="#EC2D8A" stop-opacity="0"/>
<stop offset="1" stop-color="#EC2D8A"/>
</radialGradient>
<radialGradient id="paint2_radial_18_17026" cx="0" cy="0" r="1" gradientUnits="userSpaceOnUse" gradientTransform="translate(16 15.8125) rotate(90) scale(14.625 22.0657)">
<stop offset="0.905983" stop-color="#DE66A6" stop-opacity="0"/>
<stop offset="1" stop-color="#DE66A6"/>
</radialGradient>
<radialGradient id="paint3_radial_18_17026" cx="0" cy="0" r="1" gradientUnits="userSpaceOnUse" gradientTransform="translate(15.4934 6.56379) rotate(129.92) scale(2.31328)">
<stop offset="0.187653" stop-color="#FFF453"/>
<stop offset="1" stop-color="#FFA424"/>
</radialGradient>
<radialGradient id="paint4_radial_18_17026" cx="0" cy="0" r="1" gradientUnits="userSpaceOnUse" gradientTransform="translate(18.4231 6.56379) rotate(129.92) scale(2.31328)">
<stop offset="0.187653" stop-color="#FFF453"/>
<stop offset="1" stop-color="#FFA424"/>
</radialGradient>
<radialGradient id="paint5_radial_18_17026" cx="0" cy="0" r="1" gradientUnits="userSpaceOnUse" gradientTransform="translate(16 9.125) rotate(90) scale(3.6875 11.0657)">
<stop offset="0.271186" stop-color="#FFD544"/>
<stop offset="1" stop-color="#FFC046"/>
</radialGradient>
<radialGradient id="paint6_radial_18_17026" cx="0" cy="0" r="1" gradientUnits="userSpaceOnUse" gradientTransform="translate(29.403 10.7813) rotate(140.425) scale(3.97318 20.8132)">
<stop offset="0.479369" stop-color="#FFE05F"/>
<stop offset="1" stop-color="#FFE05F" stop-opacity="0"/>
</radialGradient>
<linearGradient id="paint7_linear_18_17026" x1="27.9305" y1="15.9233" x2="23.4589" y2="9.44223" gradientUnits="userSpaceOnUse">
<stop offset="0.800558" stop-color="#FFDE5F"/>
<stop offset="1" stop-color="#FFDE5F" stop-opacity="0"/>
</linearGradient>
</defs>
</svg>

<svg width="100%" height="100%" viewBox="0 0 32 32" xmlns="http://www.w3.org/2000/svg"><g filter="url(#a)"><path fill="url(#b)" d="M11.371 8.813c-3.663 0-6.916 2.299-7.852 5.8q-.098.364-.194.735c.386.58.689 1.16.469 1.27-.19.094-.425.152-.632.186a.32.32 0 0 0-.262.234c-.23.949-.442 1.89-.62 2.774-.79 4.782 1.185 10.375 13.72 10.06 12.535.316 14.51-5.278 13.72-10.06a74 74 0 0 0-.62-2.775.32.32 0 0 0-.262-.233 2.3 2.3 0 0 1-.63-.187c-.22-.11.081-.689.467-1.267q-.097-.371-.194-.737c-.936-3.501-4.189-5.8-7.852-5.8z"/><path fill="url(#c)" d="M11.371 8.813c-3.663 0-6.916 2.299-7.852 5.8q-.098.364-.194.735c.386.58.689 1.16.469 1.27-.19.094-.425.152-.632.186a.32.32 0 0 0-.262.234c-.23.949-.442 1.89-.62 2.774-.79 4.782 1.185 10.375 13.72 10.06 12.535.316 14.51-5.278 13.72-10.06a74 74 0 0 0-.62-2.775.32.32 0 0 0-.262-.233 2.3 2.3 0 0 1-.63-.187c-.22-.11.081-.689.467-1.267q-.097-.371-.194-.737c-.936-3.501-4.189-5.8-7.852-5.8z"/></g><path fill="url(#d)" d="M11.371 8.813c-3.663 0-6.916 2.299-7.852 5.8q-.098.364-.194.735c.386.58.689 1.16.469 1.27-.19.094-.425.152-.632.186a.32.32 0 0 0-.262.234c-.23.949-.442 1.89-.62 2.774-.79 4.782 1.185 10.375 13.72 10.06 12.535.316 14.51-5.278 13.72-10.06a74 74 0 0 0-.62-2.775.32.32 0 0 0-.262-.233 2.3 2.3 0 0 1-.63-.187c-.22-.11.081-.689.467-1.267q-.097-.371-.194-.737c-.936-3.501-4.189-5.8-7.852-5.8z"/><g filter="url(#e)"><circle cx="14.532" cy="7.434" r="1.465" fill="url(#f)"/></g><g filter="url(#g)"><circle cx="17.462" cy="7.434" r="1.465" fill="url(#h)"/></g><g filter="url(#i)"><path fill="url(#j)" d="M11.371 8.813c-3.663 0-6.916 2.299-7.852 5.8-.154.575-.306 1.163-.453 1.751a.36.36 0 0 0 .35.448c.578 0 1.081-.39 1.232-.947l.163-.592c.839-3.012 3.023-4.99 7.04-4.99h8.299c4.04 0 6.2 1.978 7.039 4.99l.163.592a1.28 1.28 0 0 0 1.231.947c.235 0 .408-.22.35-.448-.146-.588-.298-1.176-.452-1.751-.936-3.501-4.189-5.8-7.852-5.8z"/></g><path fill="url(#k)" d="M11.371 8.813c-3.663 0-6.916 2.299-7.852 5.8-.154.575-.306 1.163-.453 1.751a.36.36 0 0 0 .35.448c.578 0 1.081-.39 1.232-.947l.163-.592c.839-3.012 3.023-4.99 7.04-4.99h8.299c4.04 0 6.2 1.978 7.039 4.99l.163.592a1.28 1.28 0 0 0 1.231.947c.235 0 .408-.22.35-.448-.146-.588-.298-1.176-.452-1.751-.936-3.501-4.189-5.8-7.852-5.8z"/><g filter="url(#l)"><path stroke="url(#m)" stroke-width=".25" d="M23.006 9.605c1.298.314 4.084 1.676 4.924 4.617.218.724.562 1.756.688 2.244"/></g><defs><radialGradient id="b" cx="0" cy="0" r="1" gradientTransform="matrix(-12.37497 9.8125 -8.75571 -11.04221 26.372 13.563)" gradientUnits="userSpaceOnUse"><stop offset=".272" stop-color="#FF68A5"/><stop offset="1" stop-color="#FB2B66"/></radialGradient><radialGradient id="c" cx="0" cy="0" r="1" gradientTransform="matrix(-4.00013 -14.25 29.96393 -8.4112 18.06 24.375)" gradientUnits="userSpaceOnUse"><stop offset=".799" stop-color="#EC2D8A" stop-opacity="0"/><stop offset="1" stop-color="#EC2D8A"/></radialGradient><radialGradient id="d" cx="0" cy="0" r="1" gradientTransform="matrix(0 14.625 -22.0657 0 16 15.813)" gradientUnits="userSpaceOnUse"><stop offset=".906" stop-color="#DE66A6" stop-opacity="0"/><stop offset="1" stop-color="#DE66A6"/></radialGradient><radialGradient id="f" cx="0" cy="0" r="1" gradientTransform="rotate(129.92 6.214 6.9)scale(2.31328)" gradientUnits="userSpaceOnUse"><stop offset=".188" stop-color="#FFF453"/><stop offset="1" stop-color="#FFA424"/></radialGradient><radialGradient id="h" cx="0" cy="0" r="1" gradientTransform="rotate(129.92 7.678 7.585)scale(2.31328)" gradientUnits="userSpaceOnUse"><stop offset=".188" stop-color="#FFF453"/><stop offset="1" stop-color="#FFA424"/></radialGradient><radialGradient id="j" cx="0" cy="0" r="1" gradientTransform="matrix(0 3.6875 -11.0657 0 16 9.125)" gradientUnits="userSpaceOnUse"><stop offset=".271" stop-color="#FFD544"/><stop offset="1" stop-color="#FFC046"/></radialGradient><radialGradient id="k" cx="0" cy="0" r="1" gradientTransform="rotate(140.425 12.762 10.68)scale(3.97318 20.8132)" gradientUnits="userSpaceOnUse"><stop offset=".479" stop-color="#FFE05F"/><stop offset="1" stop-color="#FFE05F" stop-opacity="0"/></radialGradient><filter id="a" width="29.744" height="21.571" x="2.128" y="8.313" color-interpolation-filters="sRGB" filterUnits="userSpaceOnUse"><feFlood flood-opacity="0" result="BackgroundImageFix"/><feBlend in="SourceGraphic" in2="BackgroundImageFix" result="shape"/><feColorMatrix in="SourceAlpha" result="hardAlpha" values="0 0 0 0 0 0 0 0 0 0 0 0 0 0 0 0 0 0 127 0"/><feOffset dx="2" dy="-.5"/><feGaussianBlur stdDeviation="2"/><feComposite in2="hardAlpha" k2="-1" k3="1" operator="arithmetic"/><feColorMatrix values="0 0 0 0 0.737255 0 0 0 0 0.25098 0 0 0 0 0.396078 0 0 0 1 0"/><feBlend in2="shape" result="effect1_innerShadow_18_17026"/></filter><filter id="e" width="2.93" height="3.03" x="13.067" y="5.869" color-interpolation-filters="sRGB" filterUnits="userSpaceOnUse"><feFlood flood-opacity="0" result="BackgroundImageFix"/><feBlend in="SourceGraphic" in2="BackgroundImageFix" result="shape"/><feColorMatrix in="SourceAlpha" result="hardAlpha" values="0 0 0 0 0 0 0 0 0 0 0 0 0 0 0 0 0 0 127 0"/><feOffset dy="-.1"/><feGaussianBlur stdDeviation=".15"/><feComposite in2="hardAlpha" k2="-1" k3="1" operator="arithmetic"/><feColorMatrix values="0 0 0 0 0.996078 0 0 0 0 0.541176 0 0 0 0 0.0941176 0 0 0 1 0"/><feBlend in2="shape" result="effect1_innerShadow_18_17026"/></filter><filter id="g" width="3.03" height="3.03" x="15.997" y="5.869" color-interpolation-filters="sRGB" filterUnits="userSpaceOnUse"><feFlood flood-opacity="0" result="BackgroundImageFix"/><feBlend in="SourceGraphic" in2="BackgroundImageFix" result="shape"/><feColorMatrix in="SourceAlpha" result="hardAlpha" values="0 0 0 0 0 0 0 0 0 0 0 0 0 0 0 0 0 0 127 0"/><feOffset dx=".1" dy="-.1"/><feGaussianBlur stdDeviation=".15"/><feComposite in2="hardAlpha" k2="-1" k3="1" operator="arithmetic"/><feColorMatrix values="0 0 0 0 0.996078 0 0 0 0 0.541176 0 0 0 0 0.0941176 0 0 0 1 0"/><feBlend in2="shape" result="effect1_innerShadow_18_17026"/></filter><filter id="i" width="25.99" height="8.3" x="3.055" y="8.613" color-interpolation-filters="sRGB" filterUnits="userSpaceOnUse"><feFlood flood-opacity="0" result="BackgroundImageFix"/><feBlend in="SourceGraphic" in2="BackgroundImageFix" result="shape"/><feColorMatrix in="SourceAlpha" result="hardAlpha" values="0 0 0 0 0 0 0 0 0 0 0 0 0 0 0 0 0 0 127 0"/><feOffset dx=".1" dy=".1"/><feGaussianBlur stdDeviation=".125"/><feComposite in2="hardAlpha" k2="-1" k3="1" operator="arithmetic"/><feColorMatrix values="0 0 0 0 0.960784 0 0 0 0 0.678431 0 0 0 0 0.282353 0 0 0 1 0"/><feBlend in2="shape" result="effect1_innerShadow_18_17026"/><feColorMatrix in="SourceAlpha" result="hardAlpha" values="0 0 0 0 0 0 0 0 0 0 0 0 0 0 0 0 0 0 127 0"/><feOffset dy="-.2"/><feGaussianBlur stdDeviation=".2"/><feComposite in2="hardAlpha" k2="-1" k3="1" operator="arithmetic"/><feColorMatrix values="0 0 0 0 1 0 0 0 0 0.498039 0 0 0 0 0.101961 0 0 0 1 0"/><feBlend in2="effect1_innerShadow_18_17026" result="effect2_innerShadow_18_17026"/></filter><filter id="l" width="6.562" height="7.814" x="22.577" y="9.084" color-interpolation-filters="sRGB" filterUnits="userSpaceOnUse"><feFlood flood-opacity="0" result="BackgroundImageFix"/><feBlend in="SourceGraphic" in2="BackgroundImageFix" result="shape"/><feGaussianBlur result="effect1_foregroundBlur_18_17026" stdDeviation=".2"/></filter><linearGradient id="m" x1="27.93" x2="23.459" y1="15.923" y2="9.442" gradientUnits="userSpaceOnUse"><stop offset=".801" stop-color="#FFDE5F"/><stop offset="1" stop-color="#FFDE5F" stop-opacity="0"/></linearGradient></defs></svg>
